img/meditations/t.svg

<svg width="216" height="230" viewBox="0 0 216 230" fill="none" xmlns="http://www.w3.org/2000/svg">
<path d="M135.764 82.8296C132.969 82.8296 130.174 83.1994 127.778 83.1994C127.378 83.1994 127.378 82.8296 126.979 82.8296C126.181 82.8296 125.781 82.8296 124.983 83.1994C119.792 83.1994 114.601 82.8296 109.41 82.8296C100.625 82.4598 91.441 82.8296 82.6563 82.8296C76.2674 83.1994 69.4792 84.6785 63.0903 83.9389C62.2917 83.9389 61.8924 84.6785 62.2917 85.418C65.8854 89.1158 72.6736 87.6367 77.4653 87.2669C86.6493 86.8971 95.8333 87.6367 105.017 88.0065C111.406 88.3762 118.194 88.746 124.583 89.1158C124.583 89.4856 124.583 89.8553 124.983 90.2251C125.382 93.1833 125.382 95.7717 125.382 98.7299C125.382 102.058 125.382 105.386 124.983 108.714C123.785 107.605 122.188 106.865 120.99 106.125C116.198 103.537 110.608 102.058 105.017 101.688C98.2292 101.318 91.441 102.058 85.4514 105.386C83.4549 106.495 73.4722 113.151 75.8681 115.74C77.066 116.849 79.4618 115.74 80.6597 115.37C83.0556 114.26 85.0521 113.151 87.0486 112.042C91.8403 109.823 96.2327 108.714 101.823 108.714C106.615 108.714 111.007 109.823 114.601 111.672C116.198 112.412 117.795 113.151 118.993 114.26C119.792 114.63 120.191 115.37 120.59 115.74C120.59 115.74 120.59 115.74 120.59 116.109C120.191 115.37 120.59 116.109 120.59 116.479C120.99 118.328 122.587 119.068 124.184 119.068C124.184 123.505 124.184 127.942 124.184 132.379C123.385 132.749 122.986 133.119 122.986 133.859C120.99 138.666 115.799 143.103 110.608 144.952C104.618 147.17 97.8299 147.54 91.441 146.431C85.8507 145.322 79.4618 143.103 75.8681 138.666C73.8715 136.077 72.6736 133.119 72.2743 129.791C71.875 126.093 72.6736 122.765 73.0729 119.437C73.0729 118.328 71.875 117.958 71.0764 118.328C64.2882 122.026 66.684 130.9 67.4826 136.447C68.2813 142.733 72.6736 147.91 78.2639 151.238C89.8438 157.894 107.014 157.524 118.594 150.868C120.59 149.759 122.587 147.91 124.184 146.061C124.184 151.608 123.785 157.524 124.184 163.071C123.785 163.81 124.184 164.55 124.583 165.289C125.382 167.508 126.979 168.248 128.576 167.878C130.174 168.248 132.17 167.508 132.569 165.289C132.969 164.55 132.969 163.81 132.969 163.071C133.368 155.305 132.969 147.17 132.969 139.405C132.969 130.531 132.969 121.656 132.569 113.151C132.569 107.235 132.569 101.318 132.17 95.7717C132.17 94.2926 131.771 91.7042 130.972 89.4856C131.372 89.4856 131.771 89.4856 132.17 89.4856C135.764 89.4856 139.358 88.746 142.951 88.3762C145.747 88.0065 149.34 88.0065 151.736 86.5274C152.135 86.5274 152.135 86.1576 152.135 85.7878C149.74 80.611 140.556 82.8296 135.764 82.8296Z" fill="white"/>
<path d="M126.58 73.2155C127.378 73.5853 128.177 74.3248 128.976 74.3248C129.375 74.3248 129.774 74.3248 130.174 74.3248C130.573 74.3248 130.972 74.3248 131.372 73.955C132.17 73.5853 132.969 73.2155 133.368 72.8457C133.767 72.4759 134.167 71.7364 134.566 70.9968C134.566 70.2573 134.566 69.5177 134.566 68.7782C134.167 68.0386 133.767 67.2991 132.969 66.5595C132.17 66.1898 131.771 65.82 130.972 65.4502C130.174 65.4502 129.375 65.4502 128.576 65.4502C127.778 65.82 126.979 66.1898 126.181 66.5595C125.781 66.9293 125.382 67.6689 124.983 68.0386C124.983 68.0386 124.983 68.0386 124.983 68.4084V68.7782C124.983 69.5177 124.983 70.2573 124.983 70.9968C125.382 71.7364 125.781 72.4759 126.58 73.2155ZM130.972 68.0386C130.573 68.0386 130.573 68.0386 130.972 68.0386C130.573 68.0386 130.972 68.0386 130.972 68.0386Z" fill="white"/>
<path d="M215.226 170.096C210.434 163.441 210.833 157.154 212.83 149.759C214.427 143.473 214.826 137.556 212.431 131.64C210.434 126.833 206.84 120.916 202.448 117.588C201.25 116.479 199.653 115.74 198.455 115C206.042 112.412 212.031 106.495 214.028 98.7299C215.625 92.4438 214.427 86.1576 212.83 80.2412C211.632 76.9132 210.833 73.2155 211.233 69.8875C211.632 66.9293 212.83 63.9711 214.028 61.0129C214.826 59.164 212.83 56.5756 210.434 56.5756C198.056 56.9454 192.465 45.8521 182.083 41.4148C174.896 38.0868 164.913 37.7171 157.726 41.4148C157.326 39.9357 156.927 38.4566 156.528 37.3473C154.132 31.4309 150.139 26.6238 144.549 22.5563C139.358 18.8585 133.767 16.2701 127.778 13.6817C122.587 11.4631 113.802 8.87463 113.403 2.21868C113.403 2.83569e-05 110.608 -0.369747 109.41 1.10935C108.611 2.21868 107.413 3.328 106.615 4.43733C105.417 5.91643 104.618 7.7653 103.42 9.2444C100.625 12.2026 95.8334 14.0515 91.8403 15.5306C84.6528 18.119 77.066 20.3377 71.0764 25.1447C65.4861 29.582 61.8924 38.4566 63.0903 45.8521C61.8924 45.1126 60.2952 44.373 58.6979 43.6335C53.507 41.7846 47.1181 41.7846 41.5278 42.8939C29.9479 45.4823 17.5695 59.5338 4.79169 54.3569C1.59724 53.2476 -0.798589 56.9454 0.798633 59.5338C1.99655 62.1222 3.59377 63.9711 3.99308 66.9293C4.39238 70.2573 4.39238 73.5852 3.99308 76.5434C3.59377 82.8296 2.39585 88.746 3.19447 95.0322C4.79169 104.277 11.1806 111.302 20.3646 113.891C14.7743 116.479 9.58335 122.026 7.18752 126.463C3.99308 131.27 3.59377 136.447 3.99308 141.994C4.79169 148.28 7.58683 154.196 7.98613 160.482C7.98613 163.071 7.58683 165.659 5.9896 167.878C4.79169 169.357 3.59377 170.466 4.39238 172.685C5.9896 176.752 10.7813 175.273 14.375 176.013C19.9653 177.122 25.1563 181.56 29.5486 184.887C33.941 187.846 38.3334 190.804 43.5243 192.283C50.3125 194.132 57.8993 193.392 63.8889 190.434C63.8889 191.543 63.8889 192.653 64.2882 193.762C65.4861 199.309 68.6806 204.486 73.0729 208.553C77.8646 213.36 84.6528 215.579 91.0417 218.167C94.2361 219.277 97.4306 220.386 99.8264 222.235C102.622 224.084 102.222 226.672 103.819 229.26C105.417 231.109 108.611 231.109 109.41 228.521C111.406 221.865 119.792 218.537 126.58 216.688C133.368 214.469 140.556 213.73 146.545 209.662C152.934 205.225 156.128 199.309 154.931 191.913C154.931 191.174 154.531 190.434 154.531 189.695C160.521 193.023 168.906 193.023 175.694 190.434C186.875 186.367 196.858 173.794 210.035 176.013C213.628 176.013 217.222 173.055 215.226 170.096ZM183.681 50.6592C190.469 55.836 196.458 61.0129 204.844 62.8618C203.646 66.5595 202.448 70.2573 202.847 73.955C203.247 80.2412 206.042 85.7878 206.042 92.074C206.042 96.5113 204.444 102.058 200.851 105.016C198.056 107.605 193.264 109.453 189.67 110.563C189.271 104.277 187.274 97.9904 184.878 92.074C181.285 83.9389 176.493 76.5434 170.503 69.5177C167.708 66.1897 164.115 62.8618 160.92 59.9036C159.323 58.7942 157.726 57.3151 156.128 56.2058C156.528 55.4663 156.927 55.0965 156.927 53.9872C156.927 54.3569 157.326 52.1383 157.726 51.3987C158.125 50.2894 158.125 49.5499 158.125 48.4405C158.524 48.0708 158.524 48.0708 158.524 47.701C165.712 42.5241 176.892 45.4823 183.681 50.6592ZM10.7813 89.4856C11.1806 83.1994 12.3785 77.283 12.3785 70.9968C12.3785 68.0386 11.9792 64.3409 10.382 61.0129C11.1806 61.0129 11.9792 61.0129 12.7778 61.0129C15.5729 60.6431 17.9688 59.9036 20.3646 59.164C26.3542 56.9454 31.5452 53.6174 37.5347 51.029C42.7257 48.8103 48.7153 48.4405 53.9063 49.9196C57.8993 51.029 60.6945 53.6174 63.8889 56.2058C60.6945 58.4245 57.5 60.6431 54.3056 62.8618C39.5313 74.6946 31.9445 91.7042 29.9479 109.453C28.3507 108.714 25.9549 108.714 23.9584 107.974C21.1632 107.235 18.7674 106.125 16.7709 104.277C11.9792 100.579 10.382 95.0322 10.7813 89.4856ZM148.142 196.72C146.545 203.746 138.958 206.704 132.569 208.923C124.583 211.511 114.601 214.1 108.611 220.016C107.813 218.167 106.215 216.688 103.819 215.209C98.2292 211.881 91.8403 210.032 86.25 207.444C80.6597 204.855 76.2674 201.527 73.0729 196.35C71.875 194.132 70.6771 191.543 70.6771 188.955C70.6771 187.846 70.6771 186.736 71.0764 185.257C71.875 184.518 72.2743 183.778 72.6736 183.039C73.0729 183.408 73.4722 183.408 74.2709 183.778C85.8507 188.585 97.8299 192.283 110.608 192.283C122.188 192.653 134.167 190.064 144.549 185.257C147.344 186.367 148.542 193.762 148.142 196.72ZM164.913 185.257C159.722 185.257 156.128 183.408 152.934 180.08C156.128 177.862 159.323 175.643 162.118 173.424C165.712 170.836 168.906 165.659 172.899 164.18C177.691 162.331 175.694 154.936 170.503 156.785C166.51 158.264 163.715 161.222 160.521 164.18C156.528 167.878 151.736 171.206 147.344 174.164C137.361 180.82 125.781 184.518 113.403 184.887C101.424 185.257 90.2431 182.299 79.0625 178.601C66.684 174.534 57.8993 165.289 48.316 157.154C47.1181 156.045 45.1215 157.524 45.9202 158.633C51.5104 166.399 57.1007 173.424 64.6875 178.971C58.2986 186.367 46.7188 185.627 38.7327 181.19C33.5417 178.232 28.75 174.534 23.1597 172.315C20.7639 171.206 17.9688 170.466 15.1736 170.096C14.7743 170.096 12.7778 170.096 11.5799 170.096C11.9792 169.357 12.7778 168.248 13.1771 167.138C14.375 164.55 14.7743 161.961 14.7743 159.373C14.7743 153.087 12.7778 146.801 11.9792 140.514C11.1806 130.531 17.9688 120.177 29.1493 117.958C29.1493 119.437 29.1493 120.547 29.1493 122.026C29.5486 131.64 31.1459 146.801 41.9271 151.978C42.7257 152.347 43.9236 151.608 43.5243 150.868C41.5278 145.691 38.7327 140.884 37.5347 135.338C35.9375 129.051 35.9375 122.396 36.3368 116.109C37.1354 104.277 39.9306 91.7042 46.7188 81.7203C54.3056 70.627 65.4861 62.1222 78.2639 56.2058C85.0521 52.8778 92.6389 49.9196 100.625 48.8103C109.01 47.3312 117.396 48.8103 125.781 50.2894C126.58 51.3987 128.576 51.3987 129.774 50.6592L130.174 50.2894C132.569 48.8103 132.969 44.373 129.375 44.0032C122.188 42.8939 114.601 41.4148 107.413 41.4148C100.226 41.4148 93.4375 43.2637 87.0486 45.4823C81.8577 47.3312 77.066 49.1801 72.2743 51.7685C69.0799 47.701 68.2813 42.8939 69.8785 37.7171C71.875 31.0611 77.4653 27.3634 83.8542 24.7749C90.2431 22.5563 96.632 20.7074 102.622 17.3794C105.417 15.9003 108.212 14.0515 109.809 11.0933C110.208 10.3537 110.608 9.2444 111.007 8.50485C115.399 15.5306 125.382 19.2283 132.569 23.6656C138.16 26.9936 143.351 31.0611 146.545 36.6077C148.142 39.9357 149.74 43.6335 149.34 47.3312C149.34 49.9196 148.142 52.1383 148.142 54.7267C148.142 55.4663 148.542 56.2058 148.542 56.5756C150.139 59.5338 153.333 61.7524 155.729 64.3409C158.924 67.2991 161.719 70.2573 164.115 73.5852C169.306 80.2412 173.698 87.2669 176.892 95.0322C178.889 100.209 180.486 105.756 181.285 111.302C181.285 112.042 181.285 112.781 181.684 113.151C182.483 122.026 181.285 131.27 177.691 140.145C176.493 142.733 170.503 150.868 176.493 151.608C183.281 152.347 185.677 141.254 186.875 137.187C188.472 131.27 189.67 125.354 190.469 119.068C192.465 119.807 194.062 120.916 196.059 122.026C200.451 124.984 204.444 131.27 206.042 136.077C208.438 142.363 205.642 148.65 204.844 155.305C204.444 160.113 205.243 163.81 206.441 168.248C196.858 168.987 189.67 174.164 181.285 179.341C176.094 182.299 170.903 184.887 164.913 185.257Z" fill="white"/>
</svg>

<svg width="216" height="230" fill="none" xmlns="http://www.w3.org/2000/svg"><path d="M135.764 82.83c-2.795 0-5.59.37-7.986.37-.4 0-.4-.37-.799-.37-.798 0-1.198 0-1.996.37-5.191 0-10.382-.37-15.573-.37-8.785-.37-17.969 0-26.754 0-6.389.37-13.177 1.849-19.566 1.109-.798 0-1.198.74-.798 1.479 3.593 3.698 10.382 2.219 15.173 1.849 9.184-.37 18.368.37 27.552.74 6.389.37 13.177.739 19.566 1.109 0 .37 0 .74.4 1.11.399 2.957.399 5.546.399 8.504 0 3.328 0 6.656-.399 9.984-1.198-1.109-2.795-1.849-3.993-2.589-4.792-2.588-10.382-4.067-15.973-4.437-6.788-.37-13.576.37-19.566 3.698-1.996 1.109-11.979 7.765-9.583 10.354 1.198 1.109 3.594 0 4.792-.37 2.396-1.11 4.392-2.219 6.389-3.328 4.791-2.219 9.184-3.328 14.774-3.328 4.792 0 9.184 1.109 12.778 2.958 1.597.74 3.194 1.479 4.392 2.588.799.37 1.198 1.11 1.597 1.48v.369c-.399-.739 0 0 0 .37.4 1.849 1.997 2.589 3.594 2.589v13.311c-.799.37-1.198.74-1.198 1.48-1.996 4.807-7.187 9.244-12.378 11.093-5.99 2.218-12.778 2.588-19.167 1.479-5.59-1.109-11.98-3.328-15.573-7.765-1.996-2.589-3.194-5.547-3.594-8.875-.399-3.698.4-7.026.799-10.354 0-1.109-1.198-1.479-1.997-1.109-6.788 3.698-4.392 12.572-3.593 18.119.798 6.286 5.19 11.463 10.78 14.791 11.58 6.656 28.751 6.286 40.331-.37 1.996-1.109 3.993-2.958 5.59-4.807 0 5.547-.399 11.463 0 17.01-.399.739 0 1.479.399 2.218.799 2.219 2.396 2.959 3.993 2.589 1.598.37 3.594-.37 3.993-2.589.4-.739.4-1.479.4-2.218.399-7.766 0-15.901 0-23.666 0-8.874 0-17.749-.4-26.254 0-5.916 0-11.833-.399-17.38 0-1.478-.399-4.067-1.198-6.285h1.198c3.594 0 7.188-.74 10.781-1.11 2.796-.37 6.389-.37 8.785-1.849.399 0 .399-.37.399-.74-2.395-5.176-11.579-2.957-16.371-2.957zm-9.184-9.614c.798.37 1.597 1.109 2.396 1.109h1.198c.399 0 .798 0 1.198-.37.798-.37 1.597-.74 1.996-1.11.399-.37.799-1.109 1.198-1.848v-2.219c-.399-.74-.799-1.479-1.597-2.219-.799-.37-1.198-.739-1.997-1.109h-2.396l-2.395 1.11c-.4.37-.799 1.109-1.198 1.479v2.958c.399.74.798 1.479 1.597 2.219zm4.392-5.177c-.399 0-.399 0 0 0-.399 0 0 0 0 0z" fill="#fff"/><path d="M215.226 170.096c-4.792-6.655-4.393-12.942-2.396-20.337 1.597-6.286 1.996-12.203-.399-18.119-1.997-4.807-5.591-10.724-9.983-14.052-1.198-1.109-2.795-1.848-3.993-2.588 7.587-2.588 13.576-8.505 15.573-16.27 1.597-6.286.399-12.572-1.198-18.489-1.198-3.328-1.997-7.025-1.597-10.353.399-2.959 1.597-5.917 2.795-8.875.798-1.849-1.198-4.437-3.594-4.437-12.378.37-17.969-10.724-28.351-15.161-7.187-3.328-17.17-3.698-24.357 0-.4-1.48-.799-2.958-1.198-4.068-2.396-5.916-6.389-10.723-11.979-14.79-5.191-3.698-10.782-6.287-16.771-8.875-5.191-2.219-13.976-4.807-14.375-11.463 0-2.219-2.795-2.589-3.993-1.11-.799 1.11-1.997 2.219-2.795 3.328-1.198 1.48-1.997 3.328-3.195 4.807-2.795 2.959-7.587 4.808-11.58 6.287-7.187 2.588-14.774 4.807-20.764 9.614-5.59 4.437-9.184 13.312-7.986 20.707-1.198-.74-2.795-1.479-4.392-2.218-5.191-1.85-11.58-1.85-17.17-.74-11.58 2.588-23.958 16.64-36.736 11.463-3.195-1.11-5.59 2.588-3.993 5.177 1.198 2.588 2.795 4.437 3.194 7.395.4 3.328.4 6.656 0 9.614-.4 6.287-1.597 12.203-.799 18.49 1.598 9.244 7.987 16.269 17.17 18.858-5.59 2.588-10.78 8.135-13.176 12.572-3.195 4.807-3.594 9.984-3.195 15.531.799 6.286 3.594 12.202 3.993 18.488 0 2.589-.4 5.177-1.996 7.396-1.198 1.479-2.396 2.588-1.598 4.807 1.598 4.067 6.39 2.588 9.983 3.328 5.59 1.109 10.781 5.547 15.174 8.874 4.392 2.959 8.784 5.917 13.975 7.396 6.788 1.849 14.375 1.109 20.365-1.849 0 1.109 0 2.219.4 3.328 1.197 5.547 4.392 10.724 8.784 14.791 4.792 4.807 11.58 7.026 17.969 9.614 3.194 1.11 6.389 2.219 8.784 4.068 2.796 1.849 2.396 4.437 3.993 7.025 1.598 1.849 4.792 1.849 5.591-.739 1.996-6.656 10.382-9.984 17.17-11.833 6.788-2.219 13.976-2.958 19.965-7.026 6.389-4.437 9.583-10.353 8.386-17.749 0-.739-.4-1.479-.4-2.218 5.99 3.328 14.375 3.328 21.163.739 11.181-4.067 21.164-16.64 34.341-14.421 3.593 0 7.187-2.958 5.191-5.917zM183.681 50.659c6.788 5.177 12.777 10.354 21.163 12.203-1.198 3.697-2.396 7.395-1.997 11.093.4 6.286 3.195 11.833 3.195 18.119 0 4.437-1.598 9.984-5.191 12.942-2.795 2.589-7.587 4.437-11.181 5.547-.399-6.286-2.396-12.573-4.792-18.489-3.593-8.135-8.385-15.53-14.375-22.556-2.795-3.328-6.388-6.656-9.583-9.614-1.597-1.11-3.194-2.589-4.792-3.698.4-.74.799-1.11.799-2.219 0 .37.399-1.849.799-2.588.399-1.11.399-1.85.399-2.959.399-.37.399-.37.399-.739 7.188-5.177 18.368-2.219 25.157 2.958zm-172.9 38.827c.4-6.287 1.598-12.203 1.598-18.49 0-2.957-.4-6.655-1.997-9.983h2.396c2.795-.37 5.19-1.11 7.587-1.849 5.99-2.219 11.18-5.547 17.17-8.135 5.19-2.219 11.18-2.589 16.371-1.11 3.993 1.11 6.788 3.698 9.983 6.287l-9.583 6.656C39.53 74.695 31.945 91.704 29.948 109.453c-1.597-.739-3.993-.739-5.99-1.479-2.795-.739-5.19-1.849-7.187-3.697-4.792-3.698-6.389-9.245-5.99-14.791zM148.142 196.72c-1.597 7.026-9.184 9.984-15.573 12.203-7.986 2.588-17.968 5.177-23.958 11.093-.798-1.849-2.396-3.328-4.792-4.807-5.59-3.328-11.979-5.177-17.569-7.765-5.59-2.589-9.983-5.917-13.177-11.094-1.198-2.218-2.396-4.807-2.396-7.395 0-1.109 0-2.219.4-3.698.798-.739 1.197-1.479 1.597-2.218.399.369.798.369 1.597.739 11.58 4.807 23.559 8.505 36.337 8.505 11.58.37 23.559-2.219 33.941-7.026 2.795 1.11 3.993 8.505 3.593 11.463zm16.771-11.463c-5.191 0-8.785-1.849-11.979-5.177 3.194-2.218 6.389-4.437 9.184-6.656 3.594-2.588 6.788-7.765 10.781-9.244 4.792-1.849 2.795-9.244-2.396-7.395-3.993 1.479-6.788 4.437-9.982 7.395-3.993 3.698-8.785 7.026-13.177 9.984-9.983 6.656-21.563 10.354-33.941 10.723-11.979.37-23.16-2.588-34.34-6.286-12.379-4.067-21.164-13.312-30.747-21.447-1.198-1.109-3.195.37-2.396 1.479 5.59 7.766 11.18 14.791 18.767 20.338-6.388 7.396-17.968 6.656-25.954 2.219-5.191-2.958-9.983-6.656-15.573-8.875-2.396-1.109-5.191-1.849-7.986-2.219H11.58c.4-.739 1.198-1.848 1.597-2.958 1.198-2.588 1.597-5.177 1.597-7.765 0-6.286-1.996-12.572-2.795-18.859-.798-9.983 5.99-20.337 17.17-22.556v4.068c.4 9.614 1.997 24.775 12.778 29.952.799.369 1.997-.37 1.597-1.11-1.996-5.177-4.791-9.984-5.99-15.53-1.596-6.287-1.596-12.942-1.197-19.229.798-11.832 3.594-24.405 10.382-34.389 7.587-11.093 18.767-19.598 31.545-25.514 6.788-3.328 14.375-6.286 22.361-7.396 8.385-1.479 16.771 0 25.156 1.48.799 1.109 2.795 1.109 3.993.37l.4-.37c2.395-1.48 2.795-5.917-.799-6.287-7.187-1.11-14.774-2.588-21.962-2.588-7.187 0-13.975 1.849-20.364 4.067-5.191 1.85-9.983 3.698-14.775 6.287-3.194-4.068-3.993-8.875-2.395-14.052 1.996-6.656 7.586-10.354 13.975-12.942 6.39-2.219 12.778-4.068 18.768-7.396 2.795-1.479 5.59-3.328 7.187-6.286.399-.74.799-1.849 1.198-2.588 4.392 7.026 14.375 10.723 21.562 15.16 5.591 3.329 10.782 7.396 13.976 12.943 1.597 3.328 3.195 7.026 2.795 10.723 0 2.589-1.198 4.807-1.198 7.396 0 .74.4 1.479.4 1.849 1.597 2.958 4.791 5.176 7.187 7.765 3.195 2.958 5.99 5.916 8.386 9.244 5.191 6.656 9.583 13.682 12.777 21.447 1.997 5.177 3.594 10.724 4.393 16.27 0 .74 0 1.479.399 1.849.799 8.875-.399 18.119-3.993 26.994-1.198 2.588-7.188 10.723-1.198 11.463 6.788.739 9.184-10.354 10.382-14.421a133.25 133.25 0 003.594-18.119c1.996.739 3.593 1.848 5.59 2.958 4.392 2.958 8.385 9.244 9.983 14.051 2.396 6.286-.4 12.573-1.198 19.228-.4 4.808.399 8.505 1.597 12.943-9.583.739-16.771 5.916-25.156 11.093-5.191 2.958-10.382 5.546-16.372 5.916z" fill="#fff"/></svg>
